X:1
T:Domum  tuam, Domine - Handl
T:James Gibb editions
T:#
%%score [ 1 2 3 4 ]
L:1/8
Q:1/4=200
M:none
K:F
V:1 treble nm="Soprano" snm="S"
V:2 treble nm="Alto" snm="A"
V:3 treble-8 nm="Tenor" snm="T"
V:4 bass nm="Bass" snm="B"
V:1
"^Domum tuam, Domine""^Jacob Handl\n(1550-1591)" A8 A4 B4 | A8 B4 G4 | F8 z4 G4- | G4 F4 E8 | %4
w: Do- mum tu-|am, Do- mi-|ne, de\-|* cet san-|
 F4 D4 D8 | z4 G8 F4 | _E8 D8 | F8 A8 | z4 G8 F4 | _E4 D4 E4 D4 | z4 d8 c4 | B4 A4 (F2 G2 A2 G2 | %12
w: cti- tu- do,|de- cet|san- cti-|tu- do,|de- cet|san- cti- tu- do,|de- cet|san- cti- tu\- * * *|
 F4 E2 D2 E8) | (F6 G2 A8) | z4 B8 A4 | F4 B8 (A4- | A2 G2 G8 ^F4) | G4 B4 B4 F4 | B4 A4 F6 B2 | %19
w: |do, * *|de- cet|san- cti- tu\-||do in lon- gi-|tu- di- ne, in|
 B4 F4 B4 A4 | A4 G4 A8 | A4 A4 A4 D4 | A4 B4 G4 G4 | G8 G8 | z4 D4 (F6 _E2 | D2 B,2 B8 A4) | B16 | %27
w: lon- gi- tu- di-|ne di- e-|rum, in lon- gi-|tu- di- ne di-|e- rum,|di- e\- *||rum,|
 z4 d4 d4 D4 | (d6 c2 B4) A4 | G4 G8 ^F4 | G8 z8 | z4 d8 _e4 | d6 c2 B4 d4 | c4 B8 A4 | B8 A8- | %35
w: in lon- gi-|tu\- * * di-|ne di- e-|rum:|ve- ni-|en- ti- um in|lo- cum i-|stum, ve\-|
 A4 G4 A6 A2 | B4 A4 G4 A4 | (G2 F2 F2 ED E8) | D4 ^F8 G4 | ^F6 G2 B4 A4 | A2 F2 (B6 AG A4) | %41
w: * ni- en- ti-|um in lo- cum|i\- * * * * *|stum, ve- ni-|en- ti- um in|lo- cum i\- * * *|
 B8 z4 F4 | F4 F4 G8 | F8 z4 A4 | A4 A4 B8 | A8 z4 d4 | d4 d4 _e8 | d8 z8 | z4 d6 d2 c4 | %49
w: stum ex-|au- di pre-|ces, ex-|au- di pre-|ces, ex-|au- di pre-|ces,|Do- mi- ne|
 B4 d4 d8 | B4 B6 B2 A4 | G4 G8 ^F4 | G4 =F6 F2 F4 | D4 d8 ^c4 | d8 A6 A2 | G4 F4 E8 | F16 | %57
w: De- us no-|ster, Do- mi- ne|De- us no-|ster, Do- mi- ne|De- us no-|ster, Do- mi-|ne De- us|no-|
 G4 d6 d2 c4 | B8 B4 (A4- | A2 G2[Q:1/4=197] G8[Q:1/4=192] ^F4) |[Q:1/4=185] G16- | %61
w: ster, Do- mi- ne|De- us no\-||ster.|
[Q:1/4=175] G16 |[Q:1/4=170] G16 |] %63
w: ||
V:2
 z16 | D8 D4 _E4 | D8 _E4 C4 | B,4 D8 C4 | F,4 (F6 =E2 D4- | D4) C4 B,4 A,4 | (G,6 A,2 B,8) | %7
w: |Do- mum tu-|am, Do- mi-|ne, Do- mi-|ne de\- * *|* cet san- cti-|tu\- * *|
 F,4 F8 E4 | D8 D4 D4 | G,8 z4 D4 | (C4 B,2 A,2 G,4) G4- | G4 F4 D4 (E4- | E2 D2) (D8 ^C4) | %13
w: do, de- cet|san- cti- tu-|do, de-|cet, * * * de\-|* cet san- cti\-|* * tu\- *|
 D8 F4 E4 | D6 E2 F8 | B,8 z4 F4 | F4 B,4 D6 D2 | D8 D8 | F8 A4 F4 | D4 B,4 D6 D2 | ^C4 D4 E8 | %21
w: do, de- cet|san- cti- tu-|do, in|lon- gi- tu- di-|ne di-|e- rum, in|lon- gi- tu- di-|ne di- e-|
 ^F16 | z4 D4 D4 G,4 | D4 _E4 D8 | B,8 C8 | B,4 D4 F8 | D4 F4 F4 F,4 | (F6 _E2 D2 C2 D2 E2 | %28
w: rum,|in lon- gi-|tu- di- ne|di- e-|rum, di- e-|rum, in lon- gi-|tu\- * * * * *|
 F4 G4 G4 F4 | _E8 D8 | z4 D8 _E4 | D6 C2 B,2 G,2 G4 | F8 (G4 F2 _E2 | F16) | F8 z4 ^F4- | %35
w: * di- ne di-|e- rum:|ve- ni-|en- ti- um in lo-|cum i\- * *||stum, ve\-|
 F4 G4 =F6 E2 | D4 F4 E4 E4- | E2 D2) (D8 ^C4) | D4 D8 =C4 | D6 E2 F4 F4 | F4 F4 F8 | F8 z4 D4 | %42
w: * ni- en- ti-|um in lo- cum|* * i\- *|stum, ve- ni-|en- ti- um in|lo- cum i-|stum ex-|
 D4 D4 _E8 | D8 z4 F4 | F4 F4 F8 | F8 z4 F4 | F4 F4 G8 | F4 D6 D2 C4 | B,4 D4 F8 | D4 B,6 B,2 A,4 | %50
w: au- di pre-|ces, ex-|au- di pre-|ces, ex-|au- di pre-|ces, Do- mi- ne|De- us no-|ster, Do- mi- ne|
 G,4 B,4 D8- | D8 D8 | D6 D2 C8 | D4 F4 E8 | D4 F6 F2 E4 | D4 D8 ^C4 | D8 z8 | z4 F6 F2 F4 | %58
w: De- us no\-|* ster,|Do- mi- ne|De- us no-|ster, Do- mi- ne|De- us no-|ster,|Do- mi- ne|
 D4 B,4 D8 | (_E4 D2 C2 D8) | z4 C6 C2 D4 | _E4 D4 E8 | D16 |] %63
w: De- us no-|ster, * * *|Do- mi- ne|De- us no-|ster.|
V:3
 z16 | z16 | z16 | z8 A8 | A4 B4 A8 | B4 G4 d8 | z4 G8 F4 | (D6 E2 F2 G2 A4) | B8 A8 | c4 B8 A4 | %10
w: |||Do-|mum tu- am|Do- mi- ne,|de- cet|san\- * * * *|cti- tu-|do, de- cet|
 G4 F4 G8 | d4 d8 c4 | A4 B4 A8 | D4 d8 c4 | B4 B4 c8 | d8 B4 c4 | B4 G4 A8 | G8 z4 B4 | %18
w: san- cti- tu-|do, de- cet|san- cti- tu-|do, de- cet|san- cti- tu-|do, de- cet|san- cti- tu-|do in|
 B4 F4 c4 d4 | G4 (d6 e2 f4) | (e2 d2 d8 ^c4) | d8 d8 | d4 G4 d4 _e4 | d4 c4 (B6 A2 | %24
w: lon- gi- tu- di-|ne di\- * *|e\- * * *|rum, in|lon- gi- tu- di-|ne di- e\- *|
 G2 A2 B8) A4 | B8 c8 | B4 d4 d4 D4 | (d6 _e2 f4) f4 | d4 G4 d8 | B4 c4 A8 | G8 z4 B4- | %31
w: * * * rum,|di- e-|rum, in lon- gi-|tu\- * * di-|ne di- e-|rum, di- e-|rum: ve\-|
 B4 A4 B6 c2 | (d2 c2 B2 A2 G4) B4 | A4 d4 c8 | B8 d8- | d4 _e4 d6 c2 | B4 F4 c4 c4 | B8 A8 | %38
w: * ni- en- ti-|um * * * * in|lo- cum i-|stum, ve\-|* ni- en- ti-|um in lo- cum|i- stum,|
 z4 A8 G4 | A6 c2 d4 c4 | d4 d4 c8 | B8 z4 B4 | B4 B4 B8 | B8 z4 c4 | c4 c4 d8 | c8 z4 B4 | %46
w: ve- ni-|en- ti- um in|lo- cum i-|stum ex-|au- di pre-|ces, ex-|au- di pre-|ces, ex-|
 B4 B4 B8- | B8 F8 | z4 B6 B2 A4 | G4 G4 D8 | G4 G6 G2 F4 | _E4 G4 D8 | d4 B6 B2 A4 | B4 d4 A8 | %54
w: au- di pre\-|* ces,|Do- mi- ne|De- us no-|ster, Do- mi- ne|De- us no-|ster, Do- mi- ne|De- us no-|
 D4 d6 d2 c4 | B4 d4 A8 | D4 d6 d2 c4 | B4 B8 A4 | B4 d6 d2 D4 | G4 B4 A8 | G4 _e6 e2 d4 | %61
w: ster, Do- mi- ne|De- us no-|ster, Do- mi- ne|De- us no-|ster, Do- mi- ne|De- us no-|ster, Do- mi- ne|
 c4 =B4 c8 | =B16 |] %63
w: De- us no-|ster.|
V:4
 z16 | z16 | z16 | z16 | z8 D,8 | D,4 _E,4 D,8 | _E,4 C,4 B,,8 | z4 D,8 C,4 | B,,4 G,,4 D,8 | %9
w: ||||Do-|mum tu- am,|Do- mi- ne,|de- cet|san- cti- tu-|
 C,4 G,8 F,4 | _E,4 D,4 E,8 | D,8 z8 | z8 z4 A,4 | A,4 B,4 A,8 | B,4 G,4 F,8 | z4 G,8 F,4 | %16
w: do, de- cet|san- cti- tu-|do,|do-|mum tu- am,|Do- mi- ne,|de- cet|
 D,4 _E,4 D,8 | G,,8 z8 | z4 F,4 F,4 B,,4 | (B,6 A,2 G,4) D,4 | A,4 B,4 A,8 | D,16 | z8 G,8 | %23
w: san- cti- tu-|do|in lon- gi-|tu\- * * di-|ne di- e-|rum,|in|
 G,4 C,4 (G,6 A,2 | B,4) G,4 F,8 | G,8 F,8 | B,,16 | z4 B,4 B,4 B,,4 | (B,6 A,2 G,4) D,4 | %29
w: lon- gi- tu\- *|* di- ne|di- e-|rum,|in lon- gi-|tu\- * * di-|
 _E,4 C,4 D,8 | G,,8 G,8- | G,4 ^F,4 G,6 A,2 | B,4 B,,4 _E,4 B,,4 | F,16 | B,,8 z8 | z16 | z16 | %37
w: ne- di- e-|rum: ve\-|* ni- en- ti-|um in lo- cum|i-|stum,|||
 z16 | D,12 _E,4 | D,6 C,2 B,,4 F,4 | D,4 B,,4 F,8 | B,,8 z4 B,,4 | B,,4 B,,4 _E,8 | B,,8 z4 F,4 | %44
w: |ve- ni-|en- ti- um in|lo- cum i-|stum ex-|au- di pre-|ces, ex-|
 F,4 F,4 B,8 | F,8 z4 B,,4 | B,,4 B,,4 _E,8 | B,,4 B,6 B,2 A,4 | G,4 B,4 F,8 | B,4 G,6 G,2 F,4 | %50
w: au- di pre-|ces, ex-|au- di pre-|ces, Do- mi- ne|De- us no-|ster, Do- mi- ne|
 _E,4 G,4 D,8 | G,4 B,6 B,2 A,4 | G,4 B,4 F,8 | B,,8 z8 | z16 | z16 | z4 B,6 B,2 A,4 | %57
w: De- us no-|ster, Do- mi- ne|De- us no-|ster,|||Do- mi- ne|
 G,4 B,4 F,8 | B,4 G,6 G,2 F,4 | _E,4 G,4 D,8 | G,,4 C,6 C,2 =B,,4 | C,4 G,4 C,8 | G,16 |] %63
w: De- us no-|ster, Do- mi- ne|De- us no-|ster, Do- mi- ne|De- us no-|ster.|

